icons/LinkVertical.svg

<svg width="24" height="24" viewBox="0 0 24 24" fill="none" xmlns="http://www.w3.org/2000/svg">
<path fill-rule="evenodd" clip-rule="evenodd" d="M12,21.75c-3.17564,0 -5.75,-2.5744 -5.75,-5.75v-1.5c0,-0.4142 0.33579,-0.75 0.75,-0.75c0.41421,0 0.75,0.3358 0.75,0.75v1.5c0,2.3472 1.90279,4.25 4.25,4.25c2.3472,0 4.25,-1.9028 4.25,-4.25v-1.5c0,-0.4142 0.3358,-0.75 0.75,-0.75c0.4142,0 0.75,0.3358 0.75,0.75v1.5c0,3.1756 -2.5744,5.75 -5.75,5.75zM12,16.75c-0.4142,0 -0.75,-0.3358 -0.75,-0.75v-8c0,-0.41421 0.3358,-0.75 0.75,-0.75c0.4142,0 0.75,0.33579 0.75,0.75v8c0,0.4142 -0.3358,0.75 -0.75,0.75zM6.25,8c0,-3.17564 2.57436,-5.75 5.75,-5.75c3.1756,0 5.75,2.57436 5.75,5.75v1.5c0,0.41421 -0.3358,0.75 -0.75,0.75c-0.4142,0 -0.75,-0.33579 -0.75,-0.75v-1.5c0,-2.34721 -1.9028,-4.25 -4.25,-4.25c-2.34721,0 -4.25,1.90279 -4.25,4.25v1.5c0,0.41421 -0.33579,0.75 -0.75,0.75c-0.41421,0 -0.75,-0.33579 -0.75,-0.75z" fill="#002B51"/>
</svg>

<svg width="24" height="24" viewBox="0 0 24 24" fill="none" xmlns="http://www.w3.org/2000/svg">
<path fill-rule="evenodd" clip-rule="evenodd" d="M12 21.75C8.82436 21.75 6.25 19.1756 6.25 16V14.5C6.25 14.0858 6.58579 13.75 7 13.75C7.41421 13.75 7.75 14.0858 7.75 14.5V16C7.75 18.3472 9.65279 20.25 12 20.25C14.3472 20.25 16.25 18.3472 16.25 16V14.5C16.25 14.0858 16.5858 13.75 17 13.75C17.4142 13.75 17.75 14.0858 17.75 14.5V16C17.75 19.1756 15.1756 21.75 12 21.75ZM12 16.75C11.5858 16.75 11.25 16.4142 11.25 16V8C11.25 7.58579 11.5858 7.25 12 7.25C12.4142 7.25 12.75 7.58579 12.75 8V16C12.75 16.4142 12.4142 16.75 12 16.75ZM6.25 9.5C6.25 9.91421 6.58579 10.25 7 10.25C7.41421 10.25 7.75 9.91421 7.75 9.5V8C7.75 5.65279 9.65279 3.75 12 3.75C14.3472 3.75 16.25 5.65279 16.25 8V9.5C16.25 9.91421 16.5858 10.25 17 10.25C17.4142 10.25 17.75 9.91421 17.75 9.5V8C17.75 4.82436 15.1756 2.25 12 2.25C8.82436 2.25 6.25 4.82436 6.25 8V9.5Z" fill="#002B51"/>
</svg>
